Numix-GalliumOS/48/status/pamac-refresh.svg

<?xml version="1.0" encoding="UTF-8" standalone="no"?>
<svg
   xmlns:dc="http://purl.org/dc/elements/1.1/"
   xmlns:cc="http://creativecommons.org/ns#"
   xmlns:rdf="http://www.w3.org/1999/02/22-rdf-syntax-ns#"
   xmlns:svg="http://www.w3.org/2000/svg"
   xmlns="http://www.w3.org/2000/svg"
   xmlns:sodipodi="http://sodipodi.sourceforge.net/DTD/sodipodi-0.dtd"
   xmlns:inkscape="http://www.inkscape.org/namespaces/inkscape"
   width="48"
   height="48"
   viewBox="0 0 48 48"
   id="svg2"
   version="1.1"
   inkscape:version="0.91 r"
   sodipodi:docname="pamac-refresh.svg">
  <metadata
     id="metadata10">
    <rdf:RDF>
      <cc:Work
         rdf:about="">
        <dc:format>image/svg+xml</dc:format>
        <dc:type
           rdf:resource="http://purl.org/dc/dcmitype/StillImage" />
        <dc:title />
      </cc:Work>
    </rdf:RDF>
  </metadata>
  <defs
     id="defs8">
    <clipPath
       id="clipPath-408241621">
      <g
         id="g3616"
         transform="translate(0,-1004.3622)">
        <path
           id="path3618"
           transform="matrix(15.333333,0,0,11.5,414.99999,878.8622)"
           d="m -24,13 c 0,1.105 -0.672,2 -1.5,2 -0.828,0 -1.5,-0.895 -1.5,-2 0,-1.105 0.672,-2 1.5,-2 0.828,0 1.5,0.895 1.5,2 z"
           inkscape:connector-curvature="0"
           style="fill:#1890d0" />
      </g>
    </clipPath>
    <clipPath
       id="clipPath-408241621-1">
      <g
         id="g3616-3"
         transform="translate(0,-1004.3622)">
        <path
           id="path3618-3"
           transform="matrix(15.333333,0,0,11.5,414.99999,878.8622)"
           d="m -24,13 c 0,1.105 -0.672,2 -1.5,2 -0.828,0 -1.5,-0.895 -1.5,-2 0,-1.105 0.672,-2 1.5,-2 0.828,0 1.5,0.895 1.5,2 z"
           inkscape:connector-curvature="0"
           style="fill:#1890d0" />
      </g>
    </clipPath>
  </defs>
  <sodipodi:namedview
     pagecolor="#ffffff"
     bordercolor="#666666"
     borderopacity="1"
     objecttolerance="10"
     gridtolerance="10"
     guidetolerance="10"
     inkscape:pageopacity="0"
     inkscape:pageshadow="2"
     inkscape:window-width="1366"
     inkscape:window-height="747"
     id="namedview6"
     showgrid="true"
     inkscape:zoom="11.313709"
     inkscape:cx="39.875107"
     inkscape:cy="14.561183"
     inkscape:window-x="0"
     inkscape:window-y="21"
     inkscape:window-maximized="1"
     inkscape:current-layer="svg2">
    <inkscape:grid
       type="xygrid"
       id="grid4138" />
  </sodipodi:namedview>
  <path
     style="fill:#c28e5c"
     d="M 15 7 L 7 16 L 22 16 L 22 7 L 15 7 z M 26 7 L 26 16 L 41 16 L 33 7 L 26 7 z M 7 19 L 7 41 L 26.677734 41 L 27.664062 37.671875 L 27.158203 37.476562 L 28.292969 34.654297 C 28.424472 34.326863 28.662654 34.075239 28.824219 33.767578 L 29.037109 33.044922 L 29.199219 33.132812 C 31.145527 29.99592 34.569316 28.001953 38.363281 28.001953 C 39.266366 28.001953 40.148797 28.120419 41 28.330078 L 41 19 L 7 19 z "
     id="path4" />
  <g
     id="g4161"
     transform="matrix(1.3636364,0,0,1.3636364,23.363636,23.5)"
     style="fill:#4db147;fill-opacity:1">
    <g
       style="fill:#4db147;fill-opacity:1"
       id="g3628"
       transform="matrix(0.34782609,0,0,0.34782609,2.6435901,2.6456559)">
      <path
         inkscape:connector-curvature="0"
         id="path3630"
         transform="matrix(2.875,0,0,2.875,97.067647,-33.481261)"
         d="m -25.40625,14.5 c 2.303968,0 4.367461,1.302964 5.28125,3.3125 l 1.21875,-0.46875 -1,3.46875 -3.3125,-1.84375 1.28125,-0.5 c -0.620857,-1.310198 -1.9541,-2.125 -3.46875,-2.125 -1.572637,0 -2.996131,0.939574 -3.5625,2.34375 L -30.75,18 c 0.844805,-2.103515 2.984794,-3.5 5.34375,-3.5 z m -5.5,4.71875 3.3125,1.78125 -1.28125,0.5 c 0.613358,1.304699 1.964097,2.15625 3.46875,2.15625 1.575636,0 2.978635,-0.910324 3.5625,-2.3125 l 1.78125,0.6875 c -0.876798,2.103015 -2.979296,3.46875 -5.34375,3.46875 -2.292471,0 -4.386956,-1.339213 -5.28125,-3.34375 l -1.21875,0.4375 z"
         style="fill:#4db147;fill-opacity:1"
         sodipodi:nodetypes="scccccsccscccsccsccc" />
    </g>
    <g
       transform="matrix(0.49988464,0,0,0.49988464,-37.411065,7.9950011)"
       clip-path="url(#clipPath-408241621)"
       id="g3650"
       style="fill:#4db147;fill-opacity:1">
      <!-- color: #004794 -->
      <g
         id="g3652"
         style="fill:#4db147;fill-opacity:1" />
    </g>
  </g>
  <g
     id="g4161-9"
     transform="matrix(1.3636364,0,0,1.3636364,23.363636,23.499999)"
     style="fill:#4db147;fill-opacity:1;stroke:#000000;stroke-opacity:1;stroke-width:4.39999988;stroke-miterlimit:4;stroke-dasharray:none">
    <g
       style="fill:#4db147;fill-opacity:1;stroke:#000000;stroke-opacity:1;stroke-width:12.64999955;stroke-miterlimit:4;stroke-dasharray:none"
       id="g3628-2"
       transform="matrix(0.34782609,0,0,0.34782609,2.6435901,2.6456559)" />
    <g
       transform="matrix(0.49988464,0,0,0.49988464,-37.411065,7.9950011)"
       clip-path="url(#clipPath-408241621-1)"
       id="g3650-2"
       style="fill:#4db147;fill-opacity:1;stroke:#000000;stroke-opacity:1;stroke-width:8.80203057;stroke-miterlimit:4;stroke-dasharray:none">
      <!-- color: #004794 -->
      <g
         id="g3652-0"
         style="fill:#4db147;fill-opacity:1;stroke:#000000;stroke-opacity:1;stroke-width:8.80203057;stroke-miterlimit:4;stroke-dasharray:none" />
    </g>
  </g>
</svg>

<svg xmlns="http://www.w3.org/2000/svg" viewBox="0 0 48 48">
 <path d="m 15 7 l -8 9 l 15 0 l 0 -9 l -7 0 z m 11 0 l 0 9 l 15 0 l -8 -9 l -7 0 z m -19 12 l 0 22 l 19.678 0 l 0.986 -3.328 l -0.506 -0.195 l 1.135 -2.822 c 0.132 -0.327 0.37 -0.579 0.531 -0.887 l 0.213 -0.723 l 0.162 0.088 c 1.946 -3.137 5.37 -5.131 9.164 -5.131 c 0.903 0 1.786 0.118 2.637 0.328 l 0 -9.33 l -34 0 z" style="fill:#c28e5c"/>
 <g transform="matrix(1.3636364,0,0,1.3636364,23.363636,23.5)" style="fill:#4db147;fill-opacity:1">
  <g transform="matrix(0.34782609,0,0,0.34782609,2.6435901,2.6456559)">
   <path transform="matrix(2.875,0,0,2.875,97.067647,-33.481261)" d="m -25.406 14.5 c 2.304 0 4.367 1.303 5.281 3.313 l 1.219 -0.469 -1 3.469 -3.313 -1.844 1.281 -0.5 c -0.621 -1.31 -1.954 -2.125 -3.469 -2.125 -1.573 0 -2.996 0.94 -3.563 2.344 l -1.781 -0.688 c 0.845 -2.104 2.985 -3.5 5.344 -3.5 z m -5.5 4.719 3.313 1.781 -1.281 0.5 c 0.613 1.305 1.964 2.156 3.469 2.156 1.576 0 2.979 -0.91 3.563 -2.313 l 1.781 0.688 c -0.877 2.103 -2.979 3.469 -5.344 3.469 -2.292 0 -4.387 -1.339 -5.281 -3.344 l -1.219 0.438 z"/>
  </g>
  <g transform="matrix(0.49988464,0,0,0.49988464,-37.411065,7.9950011)">
   <!-- color: #004794 -->
  </g>
 </g>
 <g transform="matrix(1.3636364,0,0,1.3636364,23.363636,23.499999)" style="stroke-dasharray:none;stroke-opacity:1;fill:#4db147;stroke-miterlimit:4;fill-opacity:1;stroke:#000;stroke-width:4.4">
  <g transform="matrix(0.49988464,0,0,0.49988464,-37.411065,7.9950011)" style="stroke:#000;stroke-width:8.802">
   <!-- color: #004794 -->
  </g>
 </g>
</svg>
